X: 2
T: The Cliffs Of Moher
R: jig
M: 6/8
L: 1/8
K: Gmaj
|:d|~a3 bag|eaf ged|c2A BAG|EFG A2e|
~a3 bag|e/f/af ged|cBA BAG|EFG A2:|
|:d|~e3 dBA|~e dBA|G2B dBA|~G3 dBd|
[1~e3 dBA|e/f/ge dBA|GAB dB/c/d|edB A2:|
[2~d3 dee|cee Bee|EFG AGE|dBe A2||


Tune 12	Setting 23924

